build/svg/cmd/sc_matchgroup.svg

<?xml version="1.0" encoding="UTF-8" standalone="no"?>
<svg
   xmlns:dc="http://purl.org/dc/elements/1.1/"
   xmlns:cc="http://creativecommons.org/ns#"
   xmlns:rdf="http://www.w3.org/1999/02/22-rdf-syntax-ns#"
   xmlns:svg="http://www.w3.org/2000/svg"
   xmlns="http://www.w3.org/2000/svg"
   xmlns:sodipodi="http://sodipodi.sourceforge.net/DTD/sodipodi-0.dtd"
   xmlns:inkscape="http://www.inkscape.org/namespaces/inkscape"
   viewBox="0 0 16 16"
   version="1.1"
   id="svg4"
   sodipodi:docname="sc_matchgroup.svg"
   inkscape:export-filename="/home/jupiter007/Libreoffice yaru theme fullcolor/build/cmd/sc_matchgroup.png"
   inkscape:export-xdpi="96"
   inkscape:export-ydpi="96"
   inkscape:version="0.92.5 (2060ec1f9f, 2020-04-08)"><metadata
   id="metadata10">
  <rdf:RDF>
    <cc:Work
       rdf:about="">
      <dc:format>image/svg+xml</dc:format>
      <dc:type
         rdf:resource="http://purl.org/dc/dcmitype/StillImage" />
    </cc:Work>
  </rdf:RDF>
</metadata>
<defs
   id="defs8" />
<sodipodi:namedview
   pagecolor="#ffffff"
   bordercolor="#666666"
   borderopacity="1"
   objecttolerance="10"
   gridtolerance="10"
   guidetolerance="10"
   inkscape:pageopacity="0"
   inkscape:pageshadow="2"
   inkscape:window-width="1920"
   inkscape:window-height="1011"
   id="namedview6"
   showgrid="true"
   inkscape:zoom="29.5"
   inkscape:cx="1.9632975"
   inkscape:cy="7.4642318"
   inkscape:window-x="0"
   inkscape:window-y="32"
   inkscape:window-maximized="1"
   inkscape:current-layer="svg4">
  <inkscape:grid
     type="xygrid"
     id="grid817" />
</sodipodi:namedview>
/&gt;<path
   sodipodi:nodetypes="sccsccsccssccscccsccssccs"
   style="opacity:0.6;fill:#000000;stroke:#000000;stroke-width:2;stroke-linejoin:round;stroke-miterlimit:4;stroke-dasharray:none"
   inkscape:connector-curvature="0"
   id="path819"
   d="M 5,2 C 3.895478,2 3,2.8954777 3,4 V 6.5 C 3,6.7761493 2.7761026,6.9953203 2.5,7 H 2 V 9 H 2.5 C 2.7761423,9 3,9.2238507 3,9.5 v 1.5 1 c 0,1.104597 0.8954308,2 2,2 H 7 V 12 H 6 C 5.4477158,12 5.009521,11.552217 5,11 V 9 C 5,8.6175009 4.8607152,8.2649743 4.625,8 4.8607152,7.7350257 5.0065938,7.3824423 5,7 V 6 5.71875 5 C 5,4.4477014 5.4521478,3.9306546 6,4 H 7 V 2 Z" />
<path
   d="M 5,2 C 3.895478,2 3,2.8954777 3,4 V 6.5 C 3,6.7761493 2.7761026,6.9953203 2.5,7 H 2 V 9 H 2.5 C 2.7761423,9 3,9.2238507 3,9.5 v 1.5 1 c 0,1.104597 0.8954308,2 2,2 H 7 V 12 H 6 C 5.4477158,12 5.009521,11.552217 5,11 V 9 C 5,8.6175009 4.8607152,8.2649743 4.625,8 4.8607152,7.7350257 5.0065938,7.3824423 5,7 V 6 5.71875 5 C 5,4.4477014 5.4521478,3.9306546 6,4 H 7 V 2 Z"
   id="path2"
   inkscape:connector-curvature="0"
   style="fill:#ffffff"
   sodipodi:nodetypes="sccsccsccssccscccsccssccs" />
<path
   d="m 11,2 c 1.104522,0 2,0.8954777 2,2 v 2.5 c 0,0.2761493 0.223897,0.4953203 0.5,0.5 H 14 V 9 H 13.5 C 13.223858,9 13,9.2238507 13,9.5 v 1.5 1 c 0,1.104597 -0.895431,2 -2,2 H 9 v -2 h 1 c 0.552284,0 0.990479,-0.447783 1,-1 V 9 C 11,8.6175009 11.139285,8.2649743 11.375,8 11.139285,7.7350257 10.993406,7.3824423 11,7 V 6 5.71875 5 C 11,4.4477014 10.547852,3.9306546 10,4 H 9 V 2 Z"
   id="path823"
   inkscape:connector-curvature="0"
   style="opacity:0.6;fill:#000000;stroke:#000000;stroke-width:2;stroke-linejoin:round;stroke-miterlimit:4;stroke-dasharray:none"
   sodipodi:nodetypes="sccsccsccssccscccsccssccs" />
<path
   sodipodi:nodetypes="sccsccsccssccscccsccssccs"
   style="fill:#ffffff"
   inkscape:connector-curvature="0"
   id="path825"
   d="m 11,2 c 1.104522,0 2,0.8954777 2,2 v 2.5 c 0,0.2761493 0.223897,0.4953203 0.5,0.5 H 14 V 9 H 13.5 C 13.223858,9 13,9.2238507 13,9.5 v 1.5 1 c 0,1.104597 -0.895431,2 -2,2 H 9 v -2 h 1 c 0.552284,0 0.990479,-0.447783 1,-1 V 9 C 11,8.6175009 11.139285,8.2649743 11.375,8 11.139285,7.7350257 10.993406,7.3824423 11,7 V 6 5.71875 5 C 11,4.4477014 10.547852,3.9306546 10,4 H 9 V 2 Z" />
</svg>

<svg xmlns="http://www.w3.org/2000/svg" viewBox="0 0 16 16">/&gt;<path d="M5 2a2 2 0 00-2 2v2.5a.503.503 0 01-.5.5H2v2h.5a.5.5 0 01.5.5V12a2 2 0 002 2h2v-2H6c-.552 0-.99-.448-1-1V9a1.5 1.5 0 00-.375-1c.236-.265.382-.618.375-1V5c0-.552.452-1.07 1-1h1V2z" opacity=".6" stroke="#000" stroke-width="2" stroke-linejoin="round"/><path d="M5 2a2 2 0 00-2 2v2.5a.503.503 0 01-.5.5H2v2h.5a.5.5 0 01.5.5V12a2 2 0 002 2h2v-2H6c-.552 0-.99-.448-1-1V9a1.5 1.5 0 00-.375-1c.236-.265.382-.618.375-1V5c0-.552.452-1.07 1-1h1V2z" fill="#fff"/><path d="M11 2a2 2 0 012 2v2.5c0 .276.224.495.5.5h.5v2h-.5a.5.5 0 00-.5.5V12a2 2 0 01-2 2H9v-2h1c.552 0 .99-.448 1-1V9c0-.382.14-.735.375-1A1.468 1.468 0 0111 7V5c0-.552-.452-1.07-1-1H9V2z" opacity=".6" stroke="#000" stroke-width="2" stroke-linejoin="round"/><path d="M11 2a2 2 0 012 2v2.5c0 .276.224.495.5.5h.5v2h-.5a.5.5 0 00-.5.5V12a2 2 0 01-2 2H9v-2h1c.552 0 .99-.448 1-1V9c0-.382.14-.735.375-1A1.468 1.468 0 0111 7V5c0-.552-.452-1.07-1-1H9V2z" fill="#fff"/></svg>
